_inc/systems/logos/auto-sportswithanimals.svg

<?xml version="1.0" encoding="utf-8"?>
<svg version="1.1" id="Warstwa_1" x="0px" y="0px" viewBox="0 0 200 40" xmlns="http://www.w3.org/2000/svg">
  <path d="M 68.523 39.592 L 62.523 39.592 L 70.413 20.842 L 79.233 20.842 L 80.553 39.592 L 74.523 39.592 L 74.403 36.622 L 69.693 36.622 Z M 73.653 26.602 L 71.553 31.852 L 73.953 31.852 L 73.953 26.602 Z M 93.003 39.592 L 89.943 32.932 C 89.863 32.792 89.823 32.597 89.823 32.347 C 89.823 32.097 89.843 31.812 89.883 31.492 L 89.643 31.492 L 88.233 39.592 L 82.533 39.592 L 85.833 20.842 L 91.203 20.842 L 94.263 27.502 C 94.323 27.642 94.353 27.837 94.353 28.087 C 94.353 28.337 94.333 28.622 94.293 28.942 L 94.533 28.942 L 95.973 20.842 L 101.673 20.842 L 98.373 39.592 Z M 101.942 39.592 L 105.242 20.842 L 110.942 20.842 L 107.642 39.592 Z M 116.582 39.592 L 110.642 39.592 L 115.022 20.842 L 122.462 20.842 L 123.002 30.382 L 123.212 30.382 L 127.112 20.842 L 134.552 20.842 L 132.332 39.592 L 126.362 39.592 L 127.622 30.502 L 127.412 30.502 L 123.662 39.592 L 119.312 39.592 L 118.682 30.502 L 118.532 30.502 Z M 139.771 39.592 L 133.771 39.592 L 141.661 20.842 L 150.481 20.842 L 151.801 39.592 L 145.771 39.592 L 145.651 36.622 L 140.941 36.622 Z M 144.901 26.602 L 142.801 31.852 L 145.201 31.852 L 145.201 26.602 Z M 165.181 39.592 L 153.781 39.592 L 157.081 20.842 L 162.781 20.842 L 160.321 34.792 L 166.021 34.792 Z M 166.021 39.262 L 167.701 34.312 C 169.381 34.772 170.921 35.002 172.321 35.002 C 173.721 35.002 174.851 34.942 175.711 34.822 L 175.951 33.322 L 173.461 33.082 C 171.561 32.902 170.216 32.472 169.426 31.792 C 168.636 31.112 168.241 30.152 168.241 28.912 C 168.241 28.372 168.301 27.772 168.421 27.112 C 168.881 24.552 169.716 22.792 170.926 21.832 C 172.136 20.872 174.011 20.392 176.551 20.392 C 179.091 20.392 181.331 20.642 183.271 21.142 L 181.711 25.942 C 179.971 25.642 178.571 25.492 177.511 25.492 C 176.451 25.492 175.551 25.542 174.811 25.642 L 174.571 27.112 L 176.581 27.322 C 178.621 27.542 180.071 28.027 180.931 28.777 C 181.791 29.527 182.221 30.532 182.221 31.792 C 182.221 33.072 181.941 34.392 181.381 35.752 C 181.101 36.452 180.796 37.037 180.466 37.507 C 180.136 37.977 179.716 38.377 179.206 38.707 C 178.696 39.037 178.231 39.287 177.811 39.457 C 177.391 39.627 176.861 39.752 176.221 39.832 C 175.281 39.972 174.131 40.042 172.771 40.042 C 170.291 40.042 168.041 39.782 166.021 39.262 Z" style="white-space: pre; fill: rgb(255, 255, 255);"/>
  <path d="M 16.728 18.87 L 18.408 13.92 C 20.088 14.38 21.628 14.61 23.028 14.61 C 24.428 14.61 25.558 14.55 26.418 14.43 L 26.658 12.93 L 24.168 12.69 C 22.268 12.51 20.923 12.08 20.133 11.4 C 19.343 10.72 18.948 9.76 18.948 8.52 C 18.948 7.98 19.008 7.38 19.128 6.72 C 19.588 4.16 20.423 2.4 21.633 1.44 C 22.843 0.48 24.718 0 27.258 0 C 29.798 0 32.038 0.25 33.978 0.75 L 32.418 5.55 C 30.678 5.25 29.278 5.1 28.218 5.1 C 27.158 5.1 26.258 5.15 25.518 5.25 L 25.278 6.72 L 27.288 6.93 C 29.328 7.15 30.778 7.635 31.638 8.385 C 32.498 9.135 32.928 10.14 32.928 11.4 C 32.928 12.68 32.648 14 32.088 15.36 C 31.808 16.06 31.503 16.645 31.173 17.115 C 30.843 17.585 30.423 17.985 29.913 18.315 C 29.403 18.645 28.938 18.895 28.518 19.065 C 28.098 19.235 27.568 19.36 26.928 19.44 C 25.988 19.58 24.838 19.65 23.478 19.65 C 20.998 19.65 18.748 19.39 16.728 18.87 Z M 44.718 14.67 L 40.998 14.67 L 40.218 19.2 L 34.518 19.2 L 37.818 0.45 L 46.818 0.45 C 50.218 0.45 51.918 2.03 51.918 5.19 C 51.918 6.69 51.708 8.045 51.288 9.255 C 50.868 10.465 50.403 11.425 49.893 12.135 C 49.383 12.845 48.683 13.445 47.793 13.935 C 46.903 14.425 45.878 14.67 44.718 14.67 Z M 42.648 5.25 L 41.838 9.87 L 43.158 9.87 C 43.838 9.87 44.353 9.795 44.703 9.645 C 45.053 9.495 45.278 9.15 45.378 8.61 C 45.638 7.13 45.768 6.32 45.768 6.18 C 45.768 5.8 45.618 5.55 45.318 5.43 C 45.018 5.31 44.568 5.25 43.968 5.25 Z M 59.177 6.72 L 57.797 14.52 L 60.167 14.52 C 60.947 14.52 61.527 14.425 61.907 14.235 C 62.287 14.045 62.537 13.61 62.657 12.93 L 64.037 5.13 L 61.637 5.13 C 60.877 5.13 60.307 5.225 59.927 5.415 C 59.547 5.605 59.297 6.04 59.177 6.72 Z M 62.627 0 C 65.167 0 66.977 0.495 68.057 1.485 C 69.137 2.475 69.677 4 69.677 6.06 C 69.677 8.12 69.352 10.275 68.702 12.525 C 68.052 14.775 67.022 16.525 65.612 17.775 C 64.202 19.025 62.142 19.65 59.432 19.65 C 56.722 19.65 54.827 19.155 53.747 18.165 C 52.667 17.175 52.127 15.65 52.127 13.59 C 52.127 12.61 52.267 11.315 52.547 9.705 C 52.827 8.095 53.197 6.705 53.657 5.535 C 54.117 4.365 54.737 3.35 55.517 2.49 C 57.017 0.83 59.387 0 62.627 0 Z M 86.147 19.2 L 79.877 19.2 L 78.497 13.62 L 77.267 13.62 L 76.307 19.2 L 70.607 19.2 L 73.907 0.45 L 82.907 0.45 C 86.327 0.45 88.037 1.98 88.037 5.04 C 88.037 6.3 87.847 7.5 87.467 8.64 C 86.767 10.8 85.667 12.24 84.167 12.96 Z M 78.737 5.25 L 78.077 9 L 79.397 9 C 80.077 9 80.592 8.925 80.942 8.775 C 81.292 8.625 81.532 8.195 81.662 7.485 C 81.792 6.775 81.857 6.34 81.857 6.18 C 81.857 5.78 81.702 5.525 81.392 5.415 C 81.082 5.305 80.577 5.25 79.877 5.25 Z M 103.607 5.25 L 99.467 5.25 L 97.037 19.2 L 91.337 19.2 L 93.767 5.25 L 89.657 5.25 L 90.527 0.45 L 104.477 0.45 Z M 103.036 18.87 L 104.716 13.92 C 106.396 14.38 107.936 14.61 109.336 14.61 C 110.736 14.61 111.866 14.55 112.726 14.43 L 112.966 12.93 L 110.476 12.69 C 108.576 12.51 107.231 12.08 106.441 11.4 C 105.651 10.72 105.256 9.76 105.256 8.52 C 105.256 7.98 105.316 7.38 105.436 6.72 C 105.896 4.16 106.731 2.4 107.941 1.44 C 109.151 0.48 111.026 0 113.566 0 C 116.106 0 118.346 0.25 120.286 0.75 L 118.726 5.55 C 116.986 5.25 115.586 5.1 114.526 5.1 C 113.466 5.1 112.566 5.15 111.826 5.25 L 111.586 6.72 L 113.596 6.93 C 115.636 7.15 117.086 7.635 117.946 8.385 C 118.806 9.135 119.236 10.14 119.236 11.4 C 119.236 12.68 118.956 14 118.396 15.36 C 118.116 16.06 117.811 16.645 117.481 17.115 C 117.151 17.585 116.731 17.985 116.221 18.315 C 115.711 18.645 115.246 18.895 114.826 19.065 C 114.406 19.235 113.876 19.36 113.236 19.44 C 112.296 19.58 111.146 19.65 109.786 19.65 C 107.306 19.65 105.056 19.39 103.036 18.87 Z" style="white-space: pre; fill: rgb(255, 255, 255);"/>
  <path d="M 34.619 25.392 L 37.803 25.392 L 34.555 35.392 L 30.523 35.392 L 30.523 31.712 L 30.347 31.712 L 29.019 35.392 L 25.323 35.392 L 25.323 25.392 L 28.507 25.392 L 28.219 30.976 L 28.315 30.976 L 30.395 25.392 L 32.811 25.392 L 32.811 30.976 L 32.907 30.976 Z M 37.162 35.392 L 38.922 25.392 L 41.962 25.392 L 40.202 35.392 Z M 50.106 27.952 L 47.898 27.952 L 46.602 35.392 L 43.562 35.392 L 44.858 27.952 L 42.666 27.952 L 43.13 25.392 L 50.57 25.392 Z M 55.418 35.392 L 56.026 31.856 L 53.738 31.856 L 53.13 35.392 L 50.09 35.392 L 51.85 25.392 L 54.89 25.392 L 54.266 28.928 L 56.554 28.928 L 57.178 25.392 L 60.218 25.392 L 58.458 35.392 Z" style="white-space: pre; fill: rgb(255, 255, 255);"/>
</svg>

<svg xmlns="http://www.w3.org/2000/svg" viewBox="0 0 200 40"><path d="M68.52 39.6h-6l7.9-18.76h8.81l1.32 18.75h-6.03l-.12-2.97h-4.7Zm5.13-13-2.1 5.25h2.4V26.6ZM93 39.6l-3.06-6.67a1 1 0 0 1-.12-.58q0-.38.06-.86h-.24l-1.4 8.1h-5.7l3.3-18.75h5.36l3.06 6.66q.1.21.1.59 0 .37-.07.85h.24l1.44-8.1h5.7l-3.3 18.75Zm8.94 0 3.3-18.76h5.7l-3.3 18.75Zm14.64 0h-5.94l4.38-18.76h7.44l.54 9.54h.21l3.9-9.54h7.44l-2.22 18.75h-5.97l1.26-9.09h-.2l-3.76 9.1h-4.35l-.63-9.1h-.15Zm23.2 0h-6l7.88-18.76h8.82l1.32 18.75h-6.03l-.12-2.97h-4.7Zm5.12-13-2.1 5.25h2.4V26.6Zm20.28 13h-11.4l3.3-18.76h5.7l-2.46 13.95h5.7Zm.84-.34 1.68-4.95q2.52.7 4.62.7t3.4-.19l.23-1.5-2.49-.24q-2.85-.26-4.03-1.29a3.6 3.6 0 0 1-1.19-2.88q0-.81.18-1.8.7-3.84 2.5-5.28 1.83-1.44 5.63-1.44 3.81 0 6.72.75l-1.56 4.8q-2.61-.45-4.2-.45t-2.7.15l-.24 1.47 2.01.21q3.07.32 4.35 1.46a3.8 3.8 0 0 1 1.3 3.01q0 1.92-.85 3.96-.42 1.05-.91 1.76-.5.7-1.26 1.2-.77.5-1.4.75-.63.26-1.59.37-1.41.21-3.45.21-3.72 0-6.75-.78M16.73 18.87l1.68-4.95q2.52.69 4.62.69t3.39-.18l.24-1.5-2.5-.24q-2.85-.27-4.03-1.29a3.6 3.6 0 0 1-1.18-2.88q0-.81.18-1.8.7-3.84 2.5-5.28Q23.45 0 27.26 0t6.72.75l-1.56 4.8q-2.61-.45-4.2-.45t-2.7.15l-.24 1.47 2 .21q3.07.33 4.36 1.46a3.8 3.8 0 0 1 1.29 3.01q0 1.92-.84 3.96-.42 1.05-.92 1.75-.5.72-1.26 1.2-.75.5-1.4.76-.62.24-1.58.37-1.42.21-3.45.21-3.72 0-6.75-.78m27.99-4.2H41l-.78 4.53h-5.7L37.82.45h9q5.1 0 5.1 4.74a12.3 12.3 0 0 1-2.03 6.94 6.2 6.2 0 0 1-5.17 2.54m-2.07-9.42-.81 4.62h1.32q1.03 0 1.54-.22.53-.23.68-1.04.39-2.22.39-2.43 0-.57-.45-.75t-1.35-.18Zm16.53 1.47-1.38 7.8h2.37q1.17 0 1.74-.29t.75-1.3l1.38-7.8h-2.4q-1.14 0-1.71.29t-.75 1.3M62.63 0q3.81 0 5.43 1.49 1.62 1.48 1.62 4.57t-.98 6.47-3.09 5.24q-2.1 1.88-6.18 1.88-4.06 0-5.68-1.48-1.62-1.5-1.62-4.58 0-1.48.42-3.88.42-2.42 1.1-4.18a10 10 0 0 1 1.87-3.04Q57.77 0 62.62 0m23.52 19.2h-6.27l-1.38-5.58h-1.23l-.96 5.58h-5.7L73.9.45h9q5.13 0 5.13 4.59 0 1.89-.57 3.6-1.05 3.24-3.3 4.32Zm-7.4-13.95L78.08 9h1.32q1.03 0 1.54-.22.53-.22.72-1.3.2-1.05.2-1.3 0-.6-.47-.76a5 5 0 0 0-1.51-.17Zm24.87 0h-4.14L97.04 19.2h-5.7l2.43-13.95h-4.11l.87-4.8h13.95Zm-.57 13.62 1.68-4.95q2.52.69 4.62.69t3.39-.18l.24-1.5-2.5-.24q-2.85-.27-4.03-1.29a3.6 3.6 0 0 1-1.18-2.88q0-.81.18-1.8.7-3.84 2.5-5.28Q109.76 0 113.57 0t6.72.75l-1.56 4.8q-2.61-.45-4.2-.45t-2.7.15l-.24 1.47 2 .21q3.07.33 4.36 1.46a3.8 3.8 0 0 1 1.29 3.01q0 1.92-.84 3.96-.42 1.05-.92 1.75-.5.72-1.26 1.2-.75.5-1.4.76-.62.24-1.58.37-1.42.21-3.45.21-3.72 0-6.75-.78M34.62 25.4h3.18l-3.24 10h-4.04v-3.7h-.17l-1.33 3.68h-3.7v-10h3.19l-.3 5.59h.1l2.09-5.59h2.41v5.59h.1Zm2.54 10 1.76-10h3.04l-1.76 10Zm12.95-7.45H47.9l-1.3 7.44h-3.04l1.3-7.44h-2.2l.47-2.56h7.44Zm5.3 7.44.62-3.53h-2.3l-.6 3.53h-3.04l1.76-10h3.04l-.62 3.54h2.28l.63-3.54h3.04l-1.76 10Z" style="white-space:pre;fill:#fff"/></svg>
